CSETWebApi/CSETWeb_Api/CSETWeb_ApiCore/Diagram/src/main/webapp/img/lib/mscae/Security_Center.svg

<svg xmlns="http://www.w3.org/2000/svg" width="36.654" height="50.001" fill="#ffffff"><path d="M31.185 5.96C20.17 4.745 18.326 0 18.326 0S15.847 6.242 0 6.242v25.61c0 3.097 1.72 5.997 4.104 8.532C9.506 46.133 18.327 50 18.327 50s18.327-8.03 18.327-18.15v-25.6c-2.038 0-3.85-.103-5.47-.282z" fill="#7fba00"/><path d="M22.86 16.543L31.185 5.96C20.17 4.745 18.326 0 18.326 0S15.847 6.242 0 6.242v25.61c0 3.097 1.72 5.997 4.104 8.532L22.86 16.543z" opacity=".4" fill="#b8d432"/><path d="M25.595 24.46H24.53v-3.552c0-1.71-.63-3.276-1.67-4.45l-.112-.133c-1.107-1.186-2.683-1.948-4.422-1.947s-3.312.76-4.42 1.947-1.783 2.81-1.783 4.582v3.553H11.06a.8.8 0 0 0-.801.801v9.392a.8.8 0 0 0 .801.801h14.536a.8.8 0 0 0 .801-.801v-9.39a.8.8 0 0 0-.801-.802zm-4.01.001h-5.02.001-1.495v-3.552c0-1.022.386-1.927.988-2.57s1.395-1.013 2.268-1.013 1.665.37 2.27 1.013a3.67 3.67 0 0 1 .389.504l-.001.001a3.8 3.8 0 0 1 .6 2.064v3.554z"/></svg>

<?xml version="1.0" encoding="UTF-8" standalone="no"?>
<svg
   xmlns:dc="http://purl.org/dc/elements/1.1/"
   xmlns:cc="http://creativecommons.org/ns#"
   xmlns:rdf="http://www.w3.org/1999/02/22-rdf-syntax-ns#"
   xmlns:svg="http://www.w3.org/2000/svg"
   xmlns="http://www.w3.org/2000/svg"
   xmlns:sodipodi="http://sodipodi.sourceforge.net/DTD/sodipodi-0.dtd"
   xmlns:inkscape="http://www.inkscape.org/namespaces/inkscape"
   viewBox="0 0 36.653999 50.000999"
   role="img"
   focusable="false"
   id="svg2"
   version="1.1"
   inkscape:version="0.91 r13725"
   sodipodi:docname="Azure Security Center _COLOR.svg"
   width="36.653999"
   height="50.000999"
   style="fill:#ffffff">
  <metadata
     id="metadata14">
    <rdf:RDF>
      <cc:Work
         rdf:about="">
        <dc:format>image/svg+xml</dc:format>
        <dc:type
           rdf:resource="http://purl.org/dc/dcmitype/StillImage" />
        <dc:title></dc:title>
      </cc:Work>
    </rdf:RDF>
  </metadata>
  <defs
     id="defs12" />
  <sodipodi:namedview
     pagecolor="#ffffff"
     bordercolor="#666666"
     borderopacity="1"
     objecttolerance="10"
     gridtolerance="10"
     guidetolerance="10"
     inkscape:pageopacity="0"
     inkscape:pageshadow="2"
     inkscape:window-width="1920"
     inkscape:window-height="1018"
     id="namedview10"
     showgrid="false"
     fit-margin-top="0"
     fit-margin-left="0"
     fit-margin-right="0"
     fit-margin-bottom="0"
     inkscape:zoom="10.363697"
     inkscape:cx="12.887542"
     inkscape:cy="19.082963"
     inkscape:window-x="-8"
     inkscape:window-y="-8"
     inkscape:window-maximized="1"
     inkscape:current-layer="svg2" />
  <path
     d="M 31.185,5.96 31.185,5.96 C 20.169,4.745 18.326,0 18.326,0 18.326,0 15.847,6.242 0,6.242 L 0,31.853 C 0,34.95 1.721,37.85 4.104,40.385 L 4.104,40.385 C 9.506,46.133 18.327,50.001 18.327,50.001 18.327,50.001 36.654,41.972 36.654,31.852 L 36.654,6.242 C 34.616,6.242 32.803,6.139 31.185,5.96 Z"
     id="path4"
     inkscape:connector-curvature="0"
     style="fill:#7fba00" />
  <path
     d="M 22.86,16.543 31.185,5.96 C 20.169,4.745 18.326,0 18.326,0 18.326,0 15.847,6.242 0,6.242 L 0,31.853 C 0,34.95 1.721,37.85 4.104,40.385 L 10.258,32.563 22.86,16.543 Z"
     id="path6"
     inkscape:connector-curvature="0"
     style="opacity:0.4;fill:#b8d432" />
  <path
     d="M 25.595,24.46 24.529,24.46 24.529,20.908 C 24.529,19.199 23.9,17.632 22.86,16.458 L 22.86,16.458 C 22.821,16.415 22.786,16.368 22.748,16.325 21.641,15.139 20.065,14.377 18.326,14.378 16.59,14.377 15.014,15.139 13.907,16.325 12.797,17.512 12.124,19.136 12.124,20.907 L 12.124,24.46 11.059,24.46 C 10.616,24.46 10.258,24.819 10.258,25.261 L 10.258,32.478 10.258,32.479 10.258,34.653 C 10.258,35.095 10.617,35.454 11.059,35.454 L 25.595,35.454 C 26.037,35.454 26.396,35.095 26.396,34.653 L 26.396,25.262 C 26.396,24.818 26.037,24.46 25.595,24.46 Z M 21.584,24.461 16.564,24.461 16.565,24.46 15.07,24.46 15.07,20.908 C 15.07,19.886 15.456,18.981 16.058,18.338 16.663,17.695 17.453,17.325 18.326,17.325 19.2,17.325 19.991,17.695 20.596,18.338 20.739,18.491 20.867,18.661 20.985,18.842 L 20.984,18.843 C 21.357,19.422 21.584,20.131 21.584,20.907 L 21.584,24.461 Z"
     id="path8"
     inkscape:connector-curvature="0"
     style="fill:#ffffff" />
</svg>
